X: 082
M: C|
L: 1/8
K: D
d3a fdaf | gfed cAec | d2ba fdaf | cAge fdd :|
f |\
(a2fd') b2(Bg) | (e2cc') a2(Ff) | (d2Bb) gfed | cAge fdda |
(fd)d'c' (ba).g.f | (ec).c'.b (ag).f.e | (fd).b.a (gf).e.d | cAge fdd |]


